X:73
T:Villen Kansa  (with Willie)
M:2/4
L:1/16
Q:1/4=80
S:arr. Eira Mattsson (Washington DC Finlandia Society) ~1976
R:jenkka
N:This is the part used for the medley; there is obviously more to the tune
K:Am
"Am" c2cc "E7" B2B2 | "Am" A2A2 "E7" E2E2 | "Dm" D2DF A2AA | "Am" CCCE A2A2 |!
"E7" E2EF EDCB, | "Am" A,2C2 E4 | "E7" E2E^G B2cc | "Am" B2A2 A3E | !
c2cc "E7" B2B2 | "Am" A2A2 "E7" E2E2 | "Dm" DDDF A2AA | "Am" C2CE A2A2 | !
"E7" EEEF EDCB, | "Am" A,2C2 E3E | "E7" EEE^G B2cc | "Am" B2A2 A2EE | !
c2BA c2BA | ccBA "Dm" B4 | "G7" B2AG B2AG | "C" A2GE G4 | !
"Dm" FEDE FAGF | "Am" F2E2 E2E2 | "Dm" D2DD "B7" ^D2D2 | "E7" E4 E4 ||
